X:1
T:Title
%%score ( 1 2 ) ( 3 4 5 )
L:1/8
Q:1/4=98
M:4/4
K:C
V:1 treble nm="Midi_74"
V:2 treble 
V:3 bass nm="Midi_74"
V:4 bass 
V:5 bass 
V:1
"^Requiescat  (77. 77. & refrain)""^Now the labourer's task is o'er""^John Bacchus Dykes\n(1823-76)""^John Ellerton\n(1826-93)" E2 G2 c2 B2 | %1
 B2 A2 G4 | c3 c B2 A2 | G2 E2 (E2 D2) || E2 G2 c2 c2 | B2 A2 d4 | d2 c2 B2 G2 | c2 (AB) (A2 G2) || %8
"^Refrain" G4 G4 | G2 G2 d2 c2 | (B2 A2) G4 | G2 c2 E2 G2 | G2 C2 C4- | C4 C4 |] %14
V:2
 E2 D2 C2 C2 | G2 F2 E4 | E3 E E2 C2 | C2 C2 (C2 B,2) || E2 D2 C2 E2 | D2 D2 D4 | E2 E2 G2 D2 | %7
w: Now the lab- ourer's|task is o'er,|Now the bat- tle-|day is past; *||||
w: ~There the tears of|earth are dried;|There its hid- den|things are clear; *||||
w: ~There the pe- ni-|tents that turn|To the Cross their|dy- ing eyes *||||
w: ~'Earth to earth, and|dust to dust,'|Calm- ly now the|words we say; *||||
 ^F2 F2 (F2 G2) || D4 D4 | D2 E2 =F2 F2 | F4 F4 | E2 F2 E2 D2 | C2 _B,2 A,4- | A,4 G,4 |] %14
w: |||||||
w: |||||||
w: |||||||
w: |||||||
V:3
 C2 B,2 A,2 G,2 | F,2 A,2 C4 | C3 C C2 C2 | G,2 G,2 G,4 || G,2 B,2 A,2 G,2 | ^F,2 F,2 (F,2 G,2) | %6
w: ||||Now up- on the|far- ther shore *|
w: ||||There the work of|life is tried *|
w: ||||All the love of|Je- sus learn *|
w: ||||Leav- ing * to|sleep in trust, *|
 B,2 A,2 D2 B,2 | A,2 (CD) (C2 B,2) || B,4 B,4 | D2 C2 B,2 A,2 | (D2 C2) D4 | C2 C2 C2 B,2 | %12
w: Lands the voy- a-|ger at * last. *|Fa- ther,|in Thy gra- cious|keep\- * ing|Leave we now Thy|
w: By a just- er|Judge than * here. *|||||
w: At His feet in|Pa- ra\- * dise. *|||||
w: Till the re- sur-|rec- tion * day. *|||||
 G,2 G,2 F,4- | F,4 E,4 |] %14
w: ser- vant sleep\-|* ing.|
w: ||
w: ||
w: ||
V:4
 C,2 C,2 C,2 C,2 | C,2 C,2 C,4 | A,3 A, G,2 F,2 | E,2 C,2 G,,4 || C,2 C,2 C,2 C,2 | D,2 C,2 B,,4 | %6
 C,2 C,2 D,2 D,2 | D,2 D,2 (D,2 G,,2) || x8 | x8 | x8 | x8 | x8 | C,2 D,2 x4 |] %14
V:5
 x8 | x8 | x8 | x8 || x8 | x8 | x8 | x8 || G,4 G,4 | G,2 G,2 G,2 G,2 | (G,2 A,2) B,4 | %11
 C2 A,2 G,2 F,2 | E,2 E,2 (F,4 | F,,4) C,4 |] %14

